X: 1
T: Blue Idol, The
M: 6/8
L: 1/8
R: jig
K: Ador
ag|e2A ABA|gab age|d2B BAB|g2e a2g|
e2A ABA|gab age|dBB gBB|ABA Aag|
e2A ABA|gab age|d2B BAB|g2e fga|
e2A ABA|gab age|dBB gBB|ABA Aga|
b2a agf|gab age|d2B BAB|g2e fga|
b2a agf|gab age|dBB gBB|ABA Aga|
b2a agf|gab age|d2B BAB|g2e a2g|
e2A ABA|gab age|dBB gBB|ABA A3|
